app/dist/common/images/mastec.svg

<svg height="18" width="18" xmlns="http://www.w3.org/2000/svg"><path d="m0 0h18v18h-18z" fill="#0b3666"/><path d="m9 10h-1v3h1zm2.996-5-.844 3h-.258l-.889-3h-2.005v4h.997v-2.534h.326l1.3 3.534h.743l1.34-3.534h.296v6.53h.998v-7.996zm-3.996 3.998h-1v1h1zm-4 .002h-1v1h1zm2-2h-1v1h1zm0 4h-1v1h1z" fill="#fff"/></svg>

<!-- by TradingView --><svg width="18" height="18" xmlns="http://www.w3.org/2000/svg"><path fill="#0B3666" d="M0 0h18v18H0z"/><path d="M9 10H8v3h1v-3zM11.996 5l-.844 3h-.258l-.889-3H8v4h.997V6.466h.326l1.3 3.534h.743l1.34-3.534h.296v6.53H14V5h-2.004zM8 8.998H7v1h1v-1zM4 9H3v1h1V9zM6 7H5v1h1V7zM6 11H5v1h1v-1z" fill="#fff"/></svg>
